img/home/icons/icon-5.svg

<svg height="68" viewBox="0 0 84 68" width="84" xmlns="http://www.w3.org/2000/svg" xmlns:xlink="http://www.w3.org/1999/xlink"><mask id="a" fill="#fff"><path d="m.00082136.00036267h83.60356574v67.17856003h-83.60356574z" fill="#fff" fill-rule="evenodd"/></mask><path d="m76.4956387 60.8615413c-.467871.30464-1.0350968.60112-1.5707097.6256-1.688129.0806934-3.3816774.0308267-5.1637419.0308267v-46.46032c1.8407742 0 3.6743226-.1695467 5.4618064.0498667 1.6384517.2030933 2.607613 1.5739733 2.7656775 3.2658133.0298064.3118933.0406451.6274133.0406451.94112.0027097 12.6325867-.0018064 25.2651733.0072258 37.89776.0009033 1.44976-.2303225 2.7952533-1.5409032 3.6493333zm-56.9655484.6491734h44.5651613v-46.5020267h-44.5651613zm11.1710968-52.24757337h22.195871v-3.58586666h-22.195871zm-16.8415484 52.14149337c-1.8895484 0-3.7682581.1505066-5.60903225-.04896-1.41174193-.15232-2.21832258-1.28112-2.53174193-2.6701334-.09754839-.4306666-.12825807-.884-.12825807-1.3255466-.00632258-12.7386667-.0072258-25.4764267-.00451613-38.2141867.00090323-2.22496.93574194-3.56592 2.82258065-4.0863467.10025806-.0272.2032258-.068.30438709-.068 1.69083874-.0045333 3.38167744-.0036266 5.14658064-.0037006zm69.7308387-42.5752534c-.0009032-.78064-.0596129-1.5821333-.2438709-2.3355733-1.0522581-4.2930667-4.7292904-7.13818667-9.2409033-7.15632-4.8828387-.02085333-9.7665806-.00453333-14.6503226-.00453333h-.9285161c0-1.52048.0036129-2.90858667-.0009032-4.29578667-.0090323-3.06181333-1.9464516-5.00842667-5.0020645-5.01024-7.8083871-.00544-15.6176774.04624-23.4251613-.0272-2.8207742-.02538667-5.152 2.23584-4.9939355 5.04832.0767742 1.38176.0126452 2.77077333.0126452 4.28490667h-1.0305807c-4.7536774 0-9.508258.06981333-14.26012902-.01904-5.53587096-.10245334-9.88580645 4.29669333-9.82529032 9.84549333.1363871 12.7386667.04064516 25.4800533.04696774 38.2205333 0 .68.00270968 1.3699734.11109678 2.0381867.72348387 4.47168 4.61277419 7.7429333 9.30774193 7.74656 21.57264519.0172267 43.14438709.02176 64.71522579-.0018133 5.367871-.0063467 9.408-4.1090134 9.4143226-9.4837334.0144516-12.94992.008129-25.89984-.0063226-38.84976z" fill="#ff5722" fill-rule="evenodd" mask="url(#a)"/></svg>

<?xml version="1.0" encoding="UTF-8"?>
<svg width="84px" height="68px" viewBox="0 0 84 68" version="1.1" xmlns="http://www.w3.org/2000/svg" xmlns:xlink="http://www.w3.org/1999/xlink">
    <!-- Generator: Sketch 51.3 (57544) - http://www.bohemiancoding.com/sketch -->
    <title>icon-5</title>
    <desc>Created with Sketch.</desc>
    <defs>
        <polygon id="path-1" points="0.000821356469 0.000362666667 83.6043871 0.000362666667 83.6043871 67.1789227 0.000821356469 67.1789227"></polygon>
    </defs>
    <g id="Home-&amp;-Quote" stroke="none" stroke-width="1" fill="none" fill-rule="evenodd">
        <g id="TT-Home-01" transform="translate(-232.000000, -5254.000000)">
            <g id="icon-5" transform="translate(232.000000, 5254.000000)">
                <mask id="mask-2" fill="white">
                    <use xlink:href="#path-1"></use>
                </mask>
                <g id="Clip-2"></g>
                <path d="M76.4956387,60.8615413 C76.0277677,61.1661813 75.4605419,61.4626613 74.924929,61.4871413 C73.2368,61.5678347 71.5432516,61.517968 69.7611871,61.517968 L69.7611871,15.057648 C71.6019613,15.057648 73.4355097,14.8881013 75.2229935,15.1075147 C76.8614452,15.310608 77.8306065,16.681488 77.988671,18.373328 C78.0184774,18.6852213 78.0293161,19.0007413 78.0293161,19.314448 C78.0320258,31.9470347 78.0275097,44.5796213 78.0365419,57.212208 C78.0374452,58.661968 77.8062194,60.0074613 76.4956387,60.8615413 Z M19.5300903,61.5107147 L64.0952516,61.5107147 L64.0952516,15.008688 L19.5300903,15.008688 L19.5300903,61.5107147 Z M30.7011871,9.26314133 L52.8970581,9.26314133 L52.8970581,5.67727467 L30.7011871,5.67727467 L30.7011871,9.26314133 Z M13.8596387,61.4046347 C11.9700903,61.4046347 10.0913806,61.5551413 8.25060645,61.3556747 C6.83886452,61.2033547 6.03228387,60.0745547 5.71886452,58.6855413 C5.62131613,58.2548747 5.59060645,57.8015413 5.59060645,57.3599947 C5.58428387,44.621328 5.58338065,31.883568 5.58609032,19.145808 C5.58699355,16.920848 6.52183226,15.579888 8.40867097,15.0594613 C8.50892903,15.0322613 8.61189677,14.9914613 8.71305806,14.9914613 C10.4038968,14.986928 12.0947355,14.9878347 13.8596387,14.9877607 L13.8596387,61.4046347 Z M83.5904774,18.8293813 C83.5895742,18.0487413 83.5308645,17.247248 83.3466065,16.493808 C82.2943484,12.2007413 78.6173161,9.35562133 74.1057032,9.337488 C69.2228645,9.31663467 64.3391226,9.33295467 59.4553806,9.33295467 L58.5268645,9.33295467 C58.5268645,7.81247467 58.5304774,6.424368 58.5259613,5.037168 C58.516929,1.97535467 56.5795097,0.0287413333 53.5238968,0.026928 C45.7155097,0.021488 37.9062194,0.073168 30.0987355,-0.000272 C27.2779613,-0.0256586667 24.9467355,2.235568 25.1048,5.048048 C25.1815742,6.429808 25.1174452,7.81882133 25.1174452,9.33295467 L24.0868645,9.33295467 C19.3331871,9.33295467 14.5786065,9.402768 9.82673548,9.31391467 C4.29086452,9.21146133 -0.0590709677,13.610608 0.00144516129,19.159408 C0.137832258,31.8980747 0.0420903226,44.6394613 0.0484129032,57.3799413 C0.0484129032,58.0599413 0.0511225806,58.7499147 0.159509677,59.418128 C0.882993548,63.889808 4.77228387,67.1610613 9.46725161,67.164688 C31.0398968,67.1819147 52.6116387,67.186448 74.1824774,67.1628747 C79.5503484,67.156528 83.5904774,63.0538613 83.5968,57.6791413 C83.6112516,44.7292213 83.604929,31.7793013 83.5904774,18.8293813 Z" id="Fill-1" fill="#FF5722" mask="url(#mask-2)"></path>
            </g>
        </g>
    </g>
</svg>
